SVG_Azure_All/SQL Database Query Editor.svg

<?xml version="1.0" encoding="UTF-8" standalone="no"?>
<!-- Generated by Microsoft Visio, SVG Export SQL Database Query Editor.svg Page-1 -->

<svg
   xmlns:dc="http://purl.org/dc/elements/1.1/"
   xmlns:cc="http://creativecommons.org/ns#"
   xmlns:rdf="http://www.w3.org/1999/02/22-rdf-syntax-ns#"
   xmlns:svg="http://www.w3.org/2000/svg"
   xmlns="http://www.w3.org/2000/svg"
   xmlns:sodipodi="http://sodipodi.sourceforge.net/DTD/sodipodi-0.dtd"
   xmlns:inkscape="http://www.inkscape.org/namespaces/inkscape"
   width="0.77678168in"
   height="0.77540815in"
   viewBox="0 0 55.9283 55.829693"
   xml:space="preserve"
   class="st5"
   version="1.1"
   id="svg48"
   sodipodi:docname="SQL Database Query Editor.svg"
   style="font-size:12px;overflow:visible;color-interpolation-filters:sRGB;fill:none;fill-rule:evenodd;stroke-linecap:square;stroke-miterlimit:3"
   inkscape:version="0.92.5 (2060ec1f9f, 2020-04-08)"><metadata
   id="metadata52"><rdf:RDF><cc:Work
       rdf:about=""><dc:format>image/svg+xml</dc:format><dc:type
         rdf:resource="http://purl.org/dc/dcmitype/StillImage" /></cc:Work></rdf:RDF></metadata><sodipodi:namedview
   pagecolor="#ffffff"
   bordercolor="#666666"
   borderopacity="1"
   objecttolerance="10"
   gridtolerance="10"
   guidetolerance="10"
   inkscape:pageopacity="0"
   inkscape:pageshadow="2"
   inkscape:window-width="640"
   inkscape:window-height="480"
   id="namedview50"
   showgrid="false"
   inkscape:zoom="1.4193119"
   inkscape:cx="37.284577"
   inkscape:cy="36.628589"
   inkscape:window-x="0"
   inkscape:window-y="0"
   inkscape:window-maximized="0"
   inkscape:current-layer="svg48" />
	<style
   type="text/css"
   id="style2">
	<![CDATA[
		.st1 {fill:url(#grad0-6);stroke:none;stroke-linecap:butt;stroke-width:34}
		.st2 {fill:#198ab3;stroke:none;stroke-linecap:butt;stroke-width:34}
		.st3 {fill:#50e6ff;stroke:none;stroke-linecap:butt;stroke-width:34}
		.st4 {fill:#ffffff;stroke:none;stroke-linecap:butt;stroke-width:34}
		.st5 {fill:none;fill-rule:evenodd;font-size:12px;overflow:visible;stroke-linecap:square;stroke-miterlimit:3}
	]]>
	</style>

	<defs
   id="Patterns_And_Gradients">
		<linearGradient
   id="grad0-6"
   x1="-1.1159586e-05"
   y1="77.800711"
   x2="46.114051"
   y2="77.800711"
   gradientTransform="scale(0.99362339,1.0064175)"
   gradientUnits="userSpaceOnUse">
			<stop
   offset="0"
   stop-color="#5ea0ef"
   stop-opacity="1"
   id="stop4" />
			<stop
   offset="0.18"
   stop-color="#589eed"
   stop-opacity="1"
   id="stop6" />
			<stop
   offset="0.405"
   stop-color="#4897e9"
   stop-opacity="1"
   id="stop8" />
			<stop
   offset="0.66"
   stop-color="#2e8ce1"
   stop-opacity="1"
   id="stop10" />
			<stop
   offset="0.935"
   stop-color="#0a7cd7"
   stop-opacity="1"
   id="stop12" />
			<stop
   offset="1"
   stop-color="#0078d4"
   stop-opacity="1"
   id="stop14" />
		</linearGradient>
	</defs>
	<g
   id="g46"
   transform="translate(-33.999232,-33.996399)">
		<title
   id="title18">Page-1</title>
		<g
   id="group1329-1"
   transform="translate(33.2324,-34.0157)">
			<title
   id="title20">SQL Database Query Editor</title>
			<g
   id="group1330-2">
				<title
   id="title22">MsPortalFx.base.images-52</title>
				<g
   id="shape1331-3"
   transform="translate(10.8751,-10.2879)">
					<title
   id="title24">Sheet.1331</title>
					<path
   d="m 16.03,110.79 h 13.75 v 13.92 H 16.03 Z M 0.01,92.23 H 13.74 V 78.3 H 1.91 A 1.90853,1.93341 -180 0 0 0,80.24 Z m 1.91,32.48 H 13.74 V 110.79 H 0.01 v 11.99 a 1.90853,1.93341 -180 0 0 1.9,1.93 z M 0.01,108.47 H 13.74 V 94.55 H 0.01 Z m 32.07,16.24 h 11.83 a 1.90853,1.93341 -180 0 0 1.91,-1.93 V 110.79 H 32.07 Z M 16.03,108.47 H 29.78 V 94.55 H 16.03 Z m 16.04,0 H 45.81 V 94.55 H 32.07 Z m 0,-30.17 V 92.23 H 45.81 V 80.24 A 1.90853,1.93341 -180 0 0 43.9,78.3 Z M 16.03,92.23 H 29.78 V 78.3 H 16.03 Z"
   class="st1"
   id="path26"
   inkscape:connector-curvature="0"
   style="fill:url(#grad0-6);stroke:none;stroke-width:34;stroke-linecap:butt" />
				</g>
				<g
   id="shape1332-7"
   transform="rotate(-45,1.3371945,121.20172)">
					<title
   id="title29">Sheet.1332</title>
					<path
   d="m 0,122.8 a 1.88586,1.91043 -180 0 0 1.89,1.91 h 13.94 a 1.88586,1.91043 -180 0 0 1.88,-1.91 v -0.27 a 1.88586,1.91043 -180 0 0 -1.88,-1.91 H 1.89 A 1.88586,1.91043 -180 0 0 0,122.53 Z"
   class="st2"
   id="path31"
   inkscape:connector-curvature="0"
   style="fill:#198ab3;stroke:none;stroke-width:34;stroke-linecap:butt" />
				</g>
				<g
   id="shape1333-9"
   transform="translate(6.71075,-7.52585)">
					<title
   id="title34">Sheet.1333</title>
					<ellipse
   cx="12.1523"
   cy="112.398"
   rx="12.1523"
   ry="12.3107"
   class="st3"
   id="ellipse36"
   style="fill:#50e6ff;stroke:none;stroke-width:34;stroke-linecap:butt" />
				</g>
				<g
   id="shape1334-11"
   transform="translate(9.29766,-10.3898)">
					<title
   id="title39">Sheet.1334</title>
					<ellipse
   cx="9.5426702"
   cy="115.042"
   rx="9.5426702"
   ry="9.6670399"
   class="st4"
   id="ellipse41"
   style="fill:#ffffff;stroke:none;stroke-width:34;stroke-linecap:butt" />
				</g>
			</g>
		</g>
	</g>
</svg>

<?xml version="1.0" encoding="UTF-8" standalone="no"?>
<!DOCTYPE svg PUBLIC "-//W3C//DTD SVG 1.1//EN" "http://www.w3.org/Graphics/SVG/1.1/DTD/svg11.dtd">
<!-- Generated by Microsoft Visio, SVG Export SQL Database Query Editor.svg Page-1 -->
<svg xmlns="http://www.w3.org/2000/svg" xmlns:xlink="http://www.w3.org/1999/xlink" xmlns:ev="http://www.w3.org/2001/xml-events"
		width="1.72118in" height="1.73206in" viewBox="0 0 123.925 124.709" xml:space="preserve" color-interpolation-filters="sRGB"
		class="st5">
	<style type="text/css">
	<![CDATA[
		.st1 {fill:url(#grad0-6);stroke:none;stroke-linecap:butt;stroke-width:34}
		.st2 {fill:#198ab3;stroke:none;stroke-linecap:butt;stroke-width:34}
		.st3 {fill:#50e6ff;stroke:none;stroke-linecap:butt;stroke-width:34}
		.st4 {fill:#ffffff;stroke:none;stroke-linecap:butt;stroke-width:34}
		.st5 {fill:none;fill-rule:evenodd;font-size:12px;overflow:visible;stroke-linecap:square;stroke-miterlimit:3}
	]]>
	</style>

	<defs id="Patterns_And_Gradients">
		<linearGradient id="grad0-6" x1="0" y1="0" x2="1" y2="0" gradientTransform="rotate(90 0.5 0.5)">
			<stop offset="0" stop-color="#5ea0ef" stop-opacity="1"/>
			<stop offset="0.18" stop-color="#589eed" stop-opacity="1"/>
			<stop offset="0.405" stop-color="#4897e9" stop-opacity="1"/>
			<stop offset="0.66" stop-color="#2e8ce1" stop-opacity="1"/>
			<stop offset="0.935" stop-color="#0a7cd7" stop-opacity="1"/>
			<stop offset="1" stop-color="#0078d4" stop-opacity="1"/>
		</linearGradient>
	</defs>
	<g>
		<title>Page-1</title>
		<g id="group1314-1" transform="translate(33.2324,-34.0157)">
			<title>SQL Database Query Editor</title>
			<g id="group1315-2">
				<title>MsPortalFx.base.images-52</title>
				<g id="shape1316-3" transform="translate(10.8751,-10.2879)">
					<title>Sheet.1316</title>
					<path d="M16.03 110.79 L29.78 110.79 L29.78 124.71 L16.03 124.71 L16.03 110.79 ZM0.01 92.23 L13.74 92.23 L13.74
								 78.3 L1.91 78.3 A1.90853 1.93341 -180 0 0 0 80.24 L0.01 92.23 ZM1.92 124.71 L13.74 124.71 L13.74
								 110.79 L0.01 110.79 L0.01 122.78 A1.90853 1.93341 -180 0 0 1.91 124.71 L1.92 124.71 ZM0.01 108.47
								 L13.74 108.47 L13.74 94.55 L0.01 94.55 L0.01 108.47 ZM32.08 124.71 L43.91 124.71 A1.90853 1.93341
								 -180 0 0 45.82 122.78 L45.82 110.79 L32.07 110.79 L32.08 124.71 ZM16.03 108.47 L29.78 108.47 L29.78
								 94.55 L16.03 94.55 L16.03 108.47 ZM32.07 108.47 L45.81 108.47 L45.81 94.55 L32.07 94.55 L32.07 108.47
								 ZM32.07 78.3 L32.07 92.23 L45.81 92.23 L45.81 80.24 A1.90853 1.93341 -180 0 0 43.9 78.3 L32.07 78.3
								 ZM16.03 92.23 L29.78 92.23 L29.78 78.3 L16.03 78.3 L16.03 92.23 Z" class="st1"/>
				</g>
				<g id="shape1317-7" transform="translate(-85.3109,36.4447) rotate(-45)">
					<title>Sheet.1317</title>
					<path d="M0 122.8 A1.88586 1.91043 -180 0 0 1.89 124.71 L15.83 124.71 A1.88586 1.91043 -180 0 0 17.71 122.8 L17.71
								 122.53 A1.88586 1.91043 -180 0 0 15.83 120.62 L1.89 120.62 A1.88586 1.91043 -180 0 0 0 122.53 L0
								 122.8 Z" class="st2"/>
				</g>
				<g id="shape1318-9" transform="translate(6.71075,-7.52585)">
					<title>Sheet.1318</title>
					<ellipse cx="12.1523" cy="112.398" rx="12.1523" ry="12.3107" class="st3"/>
				</g>
				<g id="shape1319-11" transform="translate(9.29766,-10.3898)">
					<title>Sheet.1319</title>
					<ellipse cx="9.54267" cy="115.042" rx="9.54267" ry="9.66704" class="st4"/>
				</g>
			</g>
		</g>
	</g>
</svg>
